X: 1
T: Confederation Bridge Reel
C: Ivan Hicks
R: reel
S: Fiddle Hell Online 2021-4-15 wordshop handout
Z: 2021 John Chambers <jc:trillian.mit.edu>
M: 2/4
L: 1/16
K: A
ED |\
"A"CEB,C A,B,CE | A2[A2E2] [A2E2]AB | cABc ABcd | e2c2 c2Bc |
"D"dfce "Bm"BcAB | "E7"GBFG E3D | "E7"EFGA BcdB | "A"c2A2 A2 :|
|: cd |\
"A"efed cAce | a2e2 "D"e2"A/c#"AB | "A"cABc ABcd | e2c2 c2Bc |
"D"dfce "Bm"BcAB | "E7"GBFG E3D | "E7"EFGA BcdB | "A"c2A2 A2 :|
